!!!!SEGMENT: pl-lzu--m-15111--001-038_noskowski-zygmunt--spiewnik-dla-dzieci-op-34-38-derkacz.krn
!!!cenid: 18xx:4735
!!!COM: Noskowski, Zygmunt
!!!COM-rismID: pe106604
!!!CDT: 1846/05/02-1909/07/23
!!!CNT: Polish
!!!GTL: Śpiewnik dla dzieci, op. 34
!!!OTL: 38. Derkacz
!!!OMV: 038
!!!PDT: 1890
!!!AGN: Secular; Song; Children
!!!YEC: Copyright 2022 Narodowy Instytut Fryderyka Chopina (https://polishscores.org)
!!!YEM: License CC-BY-4.0 (https://creativecommons.org/licenses/by/4.0)
!!!SMS-siglum: PL-LŹu
!!!SMS-shelfmark: M 15111
!!!SMS-variant:
!!!SMS-altvar:
!!!SMS-shelfwork: 001-038 G
!!!NIFC-rismSourceID: 1001234040
!!!NIFC-rismChildID: 1001234040
!!!NIFC-islandoraID: pl-lzu:5455
!!!URL-pdf-islandora: https://repozytorium.nifc.pl/islandora/object/pl-lzu%3A5455/datastream/PDF/view
!!!URL-scan: https://polish.musicsources.pl/pl/lokalizacje/galeria/druki-muzyczne/23228/47 @EN{Scan on Polish Music Sources Website} @PL{Skany w portalu Dziedzictwo Muzyki Polskiej w otwartym dostępie}
!!!IIIF:
!!!ONB-nifc:
!!!AIN: 1 piano 1 vox
!!!key: g
!!!OMD: Molto moderato.
**kern	**kern	**dynam	**kern	**text	**text	**text	**text	**dynam
*part2	*part2	*part2	*part1	*part1	*part1	*part1	*part1	*part1
*staff3	*staff2	*staff2/3	*staff1	*staff1	*staff1	*staff1	*staff1	*staf1
*I"[Piano]	*I"[Piano]	*	*I"[Voice]	*	*	*	*	*
*I'pf	*I'pf	*	*I'V	*	*	*	*	*
*Ipiano	*Ipiano	*	*Ivox	*	*	*	*	*
*ICklav	*ICklav	*	*ICvox	*	*	*	*	*
*IGacmp	*IGacmp	*	*IGsolo	*	*	*	*	*
*>[A,B,B,B,B]	*>[A,B,B,B,B]	*>[A,B,B,B,B]	*>[A,B,B,B,B]	*>[A,B,B,B,B]	*>[A,B,B,B,B]	*>[A,B,B,B,B]	*>[A,B,B,B,B]	*>[A,B,B,B,B]
*>A	*>A	*>A	*>A	*>A	*>A	*>A	*>A	*>A
*clefF4	*clefG2	*	*clefG2	*	*	*	*	*
*k[b-e-]	*k[b-e-]	*	*k[b-e-]	*	*	*	*	*
*g:	*g:	*	*g:	*	*	*	*	*
*M3/4	*M3/4	*	*M3/4	*	*	*	*	*
!	!LO:TX:a:i:t=Bardzo umiarkowanie.	!	!	!	!	!	!	!
!	!LO:TUP:a	!	!	!	!	!	!	!
16r	(48cc\LLL	.	16r	.	.	.	.	.
.	48dd\	.	.	.	.	.	.	.
.	48ee-\JJJ	.	.	.	.	.	.	.
=1	=1	=1	=1	=1	=1	=1	=1	=1
!	!	!LO:DY:rj	!	!	!	!	!	!
4d 4G\	8.dd\L)	f	2.r	.	.	.	.	.
!	!LO:TUP:a	!	!	!	!	!	!	!
.	(48cc\LL	.	.	.	.	.	.	.
.	48dd\	.	.	.	.	.	.	.
.	48ee-\JJJ	.	.	.	.	.	.	.
4d 4G\	4dd\)	.	.	.	.	.	.	.
4r	8r	.	.	.	.	.	.	.
.	16r	.	.	.	.	.	.	.
!	!LO:TUP:a	!	!	!	!	!	!	!
.	(48cc\LLL	.	.	.	.	.	.	.
.	48dd\	.	.	.	.	.	.	.
.	48ee-\JJJ	.	.	.	.	.	.	.
=2	=2	=2	=2	=2	=2	=2	=2	=2
4d 4G\	8.dd\L)	.	2.r	.	.	.	.	.
!	!LO:TUP:a	!	!	!	!	!	!	!
.	(48cc\LL	.	.	.	.	.	.	.
.	48dd\	.	.	.	.	.	.	.
.	48ee-\JJJ	.	.	.	.	.	.	.
4d 4G\	4dd\)	.	.	.	.	.	.	.
4r	4r	.	.	.	.	.	.	.
=3!|:	=3!|:	=3!|:	=3!|:	=3!|:	=3!|:	=3!|:	=3!|:	=3!|:
*>B	*>B	*>B	*>B	*>B	*>B	*>B	*>B	*>B
*	*	*	*	*v:1	*v:2	*v:3	*v:4	*
4B- 4G^\	8.b-L 8.g 8.d^/	.	8.b-/	A	A	A	A	mf
.	16a/Jk	p	16a/	w tem	idź-	idź-	idź-	.
4r	8g\L	.	8g/	gę-	-że	-że	-że	.
.	8dd\J	.	8dd\	-stem	w psze-	w ten	w te	.
4A 4G\	8ccL 8g 8e-\	.	8cc\	ży-	-nicz-	jęcz-	o-	.
.	8dd\J	.	8dd\	-cie	-kę,	-mień,	-wsy,	.
!!LO:LB:g=original
=4	=4	=4	=4	=4	=4	=4	=4	=4
*	*	*	*	*v:1	*v:2	*v:3	*v:4	*
4B- 4G\	8.b-L 8.g 8.d/	fp	8.b-/	der-	bo	w jęcz-	co	.
.	16a/Jk	.	16a/	-kacz	je-	-mień	się	.
4r	8g\L	.	8g/	so-	-szcze	ten	pó-	.
.	8dd\J	.	8dd\	-bie	zie-	zie-	-źno	.
4A 4G\	8ccL 8g 8e-\	.	8cc\	sie-	-lo-	-lo-	kło-	.
.	8dd\J	.	8dd,\	-dzi,	-na,	-ny,	-szą,	.
=5	=5	=5	=5	=5	=5	=5	=5	=5
4B- 4G\	4.b- 4.g 4.d/	.	4.b-/	Pła-	Je-	Je-	Ztam-	.
8BB-/L	.	.	.	.	.	.	.	.
8C/	8aL 8e- 8c/	.	8a/	-cze,	-szcze	-szcze	-tąd	.
8C#X/	8g 8e- 8B-/	.	8g/	la-	i	i	cię	.
8D/J	8f#XJ 8d 8A/	.	8f#X/	-men-	za	za	ko-	.
=6	=6	=6	=6	=6	=6	=6	=6	=6
4En\	4a 4d 4A/	.	4a/	-tu-	ty-	mie-	-sia-	.
4A 4F#X\	4d 4c/	.	4d/	-je	-dzień	-siąc	-rze	.
4G 4Fn\	4d 4Bn/	.	8r	.	.	.	.	.
.	.	.	8d/	i	nie	nie	nie	.
!!LO:LB:g=original
=7	=7	=7	=7	=7	=7	=7	=7	=7
*	*	*	*	*v:1	*v:2	*v:3	*v:4	*
4.G 4.E-^\	4.cc 4.c^/	.	(4.cc^\	bar-	bę-	bę-	pręd-	.
8GL 8D\	8b-L 8d/	>	8b-\)	.	.	.	.	>
8G 8C\	8a 8d/	.	8a/	-dzo	-dzie	-dzie	-ko	.
8GJ 8BB-\	8gJ 8d/	]	8g/	się	ko-	ko-	wy-	]
=8	=8	=8	=8	=8	=8	=8	=8	=8
4F#X 4AA\	4dd 4d/	.	4dd\	bie-	-szo-	-szo-	-pło-	.
4F# 4D\	4a 4d/	.	4a/	-dzi.	-na.	-ny.	-szą.	.
4r	4r	.	4r	.	.	.	.	.
=9||	=9||	=9||	=9||	=9||	=9||	=9||	=9||	=9||
*M2/4	*M2/4	*	*M2/4	*	*	*	*	*
!	!	!	!	!	!	!	!	!LO:DY:rj
2BB-/	(16b-/LL	.	8.b-/	Już	Nim	Kie-	Kie-	p
.	16d/	.	.	.	.	.	.	.
.	16f/	.	.	.	.	.	.	.
.	16aJJ 16d/	.	16a/	ko-	prze-	-dy	-dy	.
!	!	!	!	!	!	!	!	!LO:HP:t=crescendo
.	16b-LL 16f#X/	.	8b-/	-sia-	-nio-	jęcz-	o-	<
.	16d/	.	.	.	.	.	.	.
.	16a 16f#/	.	8a/	-rze	-sę	-mień	-wies	.
.	16d/JJ)	.	.	.	.	.	.	.
=10	=10	=10	=10	=10	=10	=10	=10	=10
4BB-/	(16gLL 16e-/	<	8g/	brzę-	gra-	wą-	trzę-	.
.	16B-/	.	.	.	.	.	.	.
.	16a 16e-/	.	8a/	-czą	-ty,	-sem	-sie	.
.	16B-/JJ)	.	.	.	.	.	.	.
4r	(16b-LL 16g/	[	8b-/	w ko-	dzie-	ru-	kło-	.
.	16e-/	.	.	.	.	.	.	.
.	16bn 16g/	.	8bn\	-sy,	-ci,	-sza,	-sy,	.
.	16e-/JJ)	.	.	.	.	.	.	.
!!LO:PB:g=original
=11	=11	=11	=11	=11	=11	=11	=11	=11
*	*	*	*	*v:1	*v:2	*v:3	*v:4	*
4AA/	(16dd/LL	.	8.dd\	Gdzież	To	Aż	Za	.
.	16e-/	.	.	.	.	.	.	.
.	16f/	.	.	.	.	.	.	.
.	16ccJJ 16e-/)	.	16cc\	ja	i	tru-	kark	.
4FF/	(16bn/LL	.	8bn\	pój-	ty-	-chle-	mi	.
.	16e-/	.	.	.	.	.	.	.
.	16cc 16a/	.	8cc\	-dę	-dzień	-je	na-	.
.	16e-/JJ)	.	.	.	.	.	.	.
=12	=12	=12	=12	=12	=12	=12	=12	=12
2BB-/	(16cc#X\LL	.	8cc#X\	na-	jak	we	-trzę-	.
.	16f\	.	.	.	.	.	.	.
.	16dd 16b-\	.	8dd\	-gi,	nic	mnie	-sie	.
.	16f\JJ	.	.	.	.	.	.	.
.	16ffLL 16dd^\	.	8ff^\	bo-	zle-	du-	ro-	.
.	16f\	.	.	.	.	.	.	.
.	16dd 16b-\	.	8dd\	-sy.	-ci.	-sza.	-sy.	.
.	16f\JJ)	.	.	.	.	.	.	.
=13	=13	=13	=13	=13	=13	=13	=13	=13
!	!	!LO:DY:rj	!	!	!	!	!	!LO:DY:rj
8AL 8C\	8ee-L 8a 8e-\	f	8ee-\	Der,	Der,	Der,	Der,	f
8AJ 8C\	16ee-L 16a 16e-\	.	8ee-\	der,	der,	der,	der,	.
!	!LO:TUP:a	!	!	!	!	!	!	!
.	(48dd\L	.	.	.	.	.	.	.
.	48ee-\	.	.	.	.	.	.	.
.	48ff\JJJ	.	.	.	.	.	.	.
4r	4ee-\)	.	4r	.	.	.	.	.
!!LO:LB:g=original
=14	=14	=14	=14	=14	=14	=14	=14	=14
*	*	*	*	*v:1.2.3.	*	*	*	*
8B-L 8G 8BB-\	8ddL 8g 8d\	.	8dd\	der,	.	.	.	.
8B-J 8G 8BB-\	16ddL 16g 16d\	.	8dd\	der...	.	.	.	.
!	!LO:TUP:a	!	!	!	!	!	!	!
.	(48cc\L	.	.	.	.	.	.	.
.	48dd\	.	.	.	.	.	.	.
.	48ee-\JJJ	.	.	.	.	.	.	.
4r	8.dd\L)	.	4r	.	.	.	.	.
!	!LO:TUP:a	!	!	!	!	!	!	!
.	(48cc\LL	.	.	.	.	.	.	.
.	48dd\	.	.	.	.	.	.	.
.	48ee-\JJJ	.	.	.	.	.	.	.
=15	=15	=15	=15	=15	=15	=15	=15	=15
4r	8dd\)	.	4r	.	.	.	.	.
.	8r	.	.	.	.	.	.	.
!	!	!LO:DY:rj	!	!	!	!	!	!LO:DY:rj
4c 4A 4D\	4dd 4f#X 4d/	p	4dd\	der,	.	.	.	p
=16	=16	=16	=16	=16	=16	=16	=16	=16
4B- 4G\	4g 4d/	.	4g/	der...	.	.	.	.
4r	8r	.	4r	.	.	.	.	.
.	16r	.	.	.	.	.	.	.
!	!LO:TUP:a	!	!	!	!	!	!	!
.	(48ff#X\LLL	.	.	.	.	.	.	.
.	48gg\	.	.	.	.	.	.	.
.	48aa\JJJ	.	.	.	.	.	.	.
=17	=17	=17	=17	=17	=17	=17	=17	=17
4d 4G\	8.gg\L)	.	2r	.	.	.	.	.
!	!LO:TUP:a	!	!	!	!	!	!	!
.	(48ff#X\LL	.	.	.	.	.	.	.
.	48gg\	.	.	.	.	.	.	.
.	48aa\JJJ	.	.	.	.	.	.	.
[4d 4G\	[4gg\	.	.	.	.	.	.	.
=18	=18	=18	=18	=18	=18	=18	=18	=18
4d] 4G\	4gg\])	.	2r	.	.	.	.	.
4r	4r	.	.	.	.	.	.	.
=:|!	=:|!	=:|!	=:|!	=:|!	=:|!	=:|!	=:|!	=:|!
*-	*-	*-	*-	*-	*-	*-	*-	*-
!!!system-decoration: p1{p2}
!!!RDF**kern: > = above
!!!RDF**kern: < = below
!!!ENC: Andrzej Gręziak
!!!END: 2025-03-06
!!!ENC: Marta Lawrence
!!!END: 2025-03-22
